icons/square/square-fill.svg

<svg width="14" height="14" viewBox="0 0 14 14" fill="none" xmlns="http://www.w3.org/2000/svg">
<path d="M10.5 2.5H3.5C2.94772 2.5 2.5 2.94772 2.5 3.5V10.5C2.5 11.0523 2.94772 11.5 3.5 11.5H10.5C11.0523 11.5 11.5 11.0523 11.5 10.5V3.5C11.5 2.94772 11.0523 2.5 10.5 2.5Z" fill="red" stroke="red" stroke-linejoin="round"/>
</svg>

<svg xmlns="http://www.w3.org/2000/svg" width="14" height="14" fill="none" viewBox="0 0 14 14"><path fill="red" stroke="red" stroke-linejoin="round" d="M10.5 2.5h-7a1 1 0 0 0-1 1v7a1 1 0 0 0 1 1h7a1 1 0 0 0 1-1v-7a1 1 0 0 0-1-1Z"/></svg>
